icons/svg/icons8/trailer.svg

<?xml version="1.0" encoding="utf-8"?>
<!-- Generator: Adobe Illustrator 15.0.0, SVG Export Plug-In . SVG Version: 6.00 Build 0)  -->
<!DOCTYPE svg PUBLIC "-//W3C//DTD SVG 1.1//EN" "http://www.w3.org/Graphics/SVG/1.1/DTD/svg11.dtd">
<svg version="1.1" id="Layer_1" xmlns="http://www.w3.org/2000/svg" xmlns:xlink="http://www.w3.org/1999/xlink" x="0px" y="0px"
	 width="26px" height="26px" viewBox="0 0 26 26" enable-background="new 0 0 26 26" xml:space="preserve">
<rect x="902" y="1469" fill="#333333" width="26" height="2"/>
<rect x="902" y="1489" fill="#333333" width="26" height="2"/>
<rect x="906" y="1474" fill="#333333" width="18" height="2"/>
<rect x="902" y="1479" fill="#333333" width="26" height="2"/>
<rect x="906" y="1484" fill="#333333" width="18" height="2"/>
<rect x="902" y="1467" fill="none" width="26" height="26"/>
<rect fill="none" width="26" height="26"/>
<g>
	<circle fill="#333333" cx="10.5" cy="23.5" r="2.313"/>
</g>
<path fill="#333333" d="M25,21h-3c0,0,0-1.308,0-2.576C22,11.065,15.518,7,13,7H3c-1.656,0-3,1.344-3,3v10c0,1.656,1.344,3,3,3
	h3.994c0.245-1.723,1.716-3.057,3.506-3.057s3.261,1.334,3.506,3.057H25c0.552,0,1-0.448,1-1S25.552,21,25,21z M7,14H3v-3
	c0-0.552,0.448-1,1-1h3V14z M10,14v-4h2.579c1.538,0,4.283,1.796,4.942,4H10z"/>
</svg>

<svg width="26" height="26" viewBox="0 0 26 26" fill="none" xmlns="http://www.w3.org/2000/svg">
<g clip-path="url(#clip0)">
<path d="M10.5 25.813C11.7774 25.813 12.813 24.7774 12.813 23.5C12.813 22.2226 11.7774 21.187 10.5 21.187C9.22258 21.187 8.18701 22.2226 8.18701 23.5C8.18701 24.7774 9.22258 25.813 10.5 25.813Z" fill="#333333"/>
<path d="M25 21H22C22 21 22 19.692 22 18.424C22 11.065 15.518 7 13 7H3C1.344 7 0 8.344 0 10V20C0 21.656 1.344 23 3 23H6.994C7.239 21.277 8.71 19.943 10.5 19.943C12.29 19.943 13.761 21.277 14.006 23H25C25.552 23 26 22.552 26 22C26 21.448 25.552 21 25 21ZM7 14H3V11C3 10.448 3.448 10 4 10H7V14ZM10 14V10H12.579C14.117 10 16.862 11.796 17.521 14H10Z" fill="#333333"/>
</g>
<defs>
<clipPath id="clip0">
<rect width="26" height="26" fill="white"/>
</clipPath>
</defs>
</svg>
